picto/luggage-stowage-framed.svg

<svg class="color-immutable" width="30" height="30" viewBox="0 0 30 30" fill="none" xmlns="http://www.w3.org/2000/svg"><path d="M30 0H0V30H30V0Z" fill="#2D327D"/><path d="M25.5 3C26.325 3 27 3.675 27 4.5V25.5C27 26.325 26.325 27 25.5 27H4.5C3.675 27 3 26.325 3 25.5V4.5C3 3.675 3.675 3 4.5 3H25.5ZM25.5 2.625H4.5C3.46613 2.625 2.625 3.46613 2.625 4.5V25.5C2.625 26.5339 3.46613 27.375 4.5 27.375H25.5C26.5339 27.375 27.375 26.5339 27.375 25.5V4.5C27.375 3.46613 26.5339 2.625 25.5 2.625Z" fill="white"/><path d="M14.7991 15.2543H15.2188C15.2685 15.2543 15.3088 15.2138 15.3088 15.1644V14.2344C15.3088 14.0692 15.1738 13.9343 15.0088 13.9343C14.8438 13.9343 14.709 14.0692 14.709 14.2344V15.1644C14.709 15.2138 14.7495 15.2543 14.7991 15.2543Z" fill="white"/><path d="M15.2339 15.4944V23.0851C15.2339 23.1346 15.2744 23.175 15.324 23.175H16.3582C16.5231 23.175 16.6733 23.0387 16.6919 22.8723C16.6919 22.8723 16.8487 21.4641 16.8487 19.2896C16.8488 17.1156 16.6919 15.7072 16.6919 15.7072C16.6733 15.5407 16.5231 15.4044 16.3582 15.4044H15.324C15.2744 15.4044 15.2339 15.4451 15.2339 15.4944Z" fill="white"/><path d="M13.3257 15.7072C13.3257 15.7072 13.1691 17.1156 13.1691 19.2896C13.1691 21.4641 13.3257 22.8723 13.3257 22.8723C13.3444 23.0388 13.4946 23.175 13.6594 23.175H14.6937C14.7432 23.175 14.7837 23.1346 14.7837 23.0851V15.4944C14.7837 15.4451 14.7432 15.4044 14.6937 15.4044H13.6594C13.4946 15.4044 13.3445 15.5408 13.3257 15.7072Z" fill="white"/><path d="M24 23.7H6V24H24V23.7Z" fill="white"/><path d="M18.4774 20.2838C18.6349 20.4038 18.8314 20.475 19.0452 20.475H23.5504C23.7979 20.475 24.0004 20.2725 24.0004 20.025V18.9C24.0004 18.6525 23.7979 18.45 23.5504 18.45H19.7607L19.1181 16.425L22.449 16.4258C22.801 16.4258 23.0865 16.1404 23.0865 15.7883C23.0865 15.4363 22.801 15.1508 22.449 15.1508L18.7134 15.1487L17.1754 10.275H15.675L18.1444 19.8C18.2014 19.995 18.3199 20.1638 18.4774 20.2838ZM16.9554 10.575L18.4934 15.4485L22.449 15.4508C22.635 15.4508 22.7865 15.6023 22.7865 15.7883C22.7865 15.9744 22.635 16.1258 22.449 16.1258L18.7081 16.1249L19.5411 18.75H23.5504C23.6317 18.75 23.7004 18.8187 23.7004 18.9V20.025C23.7004 20.1063 23.6317 20.175 23.5504 20.175H19.0452C18.9042 20.175 18.7707 20.1301 18.6592 20.0451C18.552 19.9634 18.4719 19.848 18.4335 19.7198L16.0627 10.575H16.9554Z" fill="white"/><path d="M17.1675 9.825L17.9703 8.94915C18.1386 8.77283 18.1505 8.6616 18.15 8.49937V6.45C18.15 6.20183 17.9482 6 17.7 6H16.125C15.8769 6 15.675 6.20183 15.675 6.45L15.6751 9.825H17.1675ZM16.125 6.3H17.7C17.7828 6.3 17.85 6.36727 17.85 6.45V8.5002C17.8503 8.61337 17.8504 8.64022 17.7512 8.74417L17.0355 9.525H15.9751L15.975 6.45C15.975 6.36727 16.0423 6.3 16.125 6.3Z" fill="white"/><path d="M6.44963 20.475H10.9549C11.1686 20.475 11.3651 20.4038 11.5226 20.2838C11.6801 20.1638 11.7986 19.995 11.8556 19.8L14.325 10.275H12.8246L11.2867 15.1487L7.55108 15.1508C7.19903 15.1508 6.91358 15.4363 6.91358 15.7883C6.91358 16.1404 7.19903 16.4258 7.55108 16.4258L10.882 16.425L10.2394 18.45H6.44963C6.20213 18.45 5.99963 18.6525 5.99963 18.9V20.025C5.99963 20.2725 6.20213 20.475 6.44963 20.475ZM6.29963 18.9C6.29963 18.8187 6.36833 18.75 6.44963 18.75H10.4589L11.2919 16.1249L7.55101 16.1259C7.36501 16.1259 7.21358 15.9745 7.21358 15.7884C7.21358 15.6023 7.36501 15.4509 7.55108 15.4509L11.5067 15.4486L13.0446 10.575H13.9373L11.5665 19.7198C11.5281 19.848 11.4481 19.9634 11.3408 20.0452C11.2293 20.1302 11.0959 20.1751 10.9549 20.1751H6.44963C6.36833 20.1751 6.29963 20.1064 6.29963 20.0251V18.9Z" fill="white"/><path d="M12.8326 9.825H14.3249L14.325 6.45C14.325 6.20183 14.1232 6 13.875 6H12.3C12.0518 6 11.85 6.20183 11.85 6.45V8.49945C11.8495 8.66167 11.8615 8.7729 12.0298 8.94922L12.8326 9.825ZM12.15 6.45C12.15 6.36727 12.2173 6.3 12.3 6.3H13.875C13.9577 6.3 14.025 6.36727 14.025 6.45L14.0249 9.525H12.9645L12.2488 8.74425C12.1495 8.6403 12.1496 8.61337 12.1499 8.50027L12.15 6.45Z" fill="white"/></svg>

<svg class="color-immutable" width="30" height="30" viewBox="0 0 30 30" fill="none" xmlns="http://www.w3.org/2000/svg"><g clip-path="url(#a)"><path d="M30 0H0v30h30V0Z" fill="#2D327D"/><path d="M25.5 3c.825 0 1.5.675 1.5 1.5v21c0 .825-.675 1.5-1.5 1.5h-21c-.825 0-1.5-.675-1.5-1.5v-21C3 3.675 3.675 3 4.5 3h21Zm0-.375h-21A1.877 1.877 0 0 0 2.625 4.5v21c0 1.034.841 1.875 1.875 1.875h21a1.877 1.877 0 0 0 1.875-1.875v-21A1.877 1.877 0 0 0 25.5 2.625Z" fill="#fff"/><path d="M14.8 15.254h.419c.05 0 .09-.04.09-.09v-.93a.3.3 0 0 0-.3-.3.3.3 0 0 0-.3.3v.93c0 .05.04.09.09.09ZM15.234 15.494v7.591c0 .05.04.09.09.09h1.034a.347.347 0 0 0 .334-.303s.157-1.408.157-3.582-.157-3.583-.157-3.583a.347.347 0 0 0-.334-.303h-1.034a.09.09 0 0 0-.09.09ZM13.326 15.707s-.157 1.409-.157 3.583c0 2.174.157 3.582.157 3.582a.347.347 0 0 0 .333.303h1.035c.05 0 .09-.04.09-.09v-7.59a.09.09 0 0 0-.09-.09h-1.035a.347.347 0 0 0-.333.302ZM24 23.7H6v.3h18v-.3ZM18.477 20.284c.158.12.354.191.568.191h4.505c.248 0 .45-.203.45-.45V18.9a.451.451 0 0 0-.45-.45h-3.79l-.642-2.025h3.331a.638.638 0 0 0 0-1.274l-3.736-.002-1.538-4.874h-1.5l2.47 9.525a.941.941 0 0 0 .332.484Zm-1.522-9.709 1.538 4.873 3.956.003a.338.338 0 0 1 0 .675l-3.74-.001.832 2.625h4.01c.08 0 .15.069.15.15v1.125c0 .081-.07.15-.15.15h-4.506a.645.645 0 0 1-.612-.455l-2.37-9.145h.892ZM17.168 9.825l.802-.876c.169-.176.18-.287.18-.45V6.45A.45.45 0 0 0 17.7 6h-1.575a.45.45 0 0 0-.45.45v3.375h1.492ZM16.125 6.3H17.7a.15.15 0 0 1 .15.15V8.5c0 .113 0 .14-.099.244l-.716.781h-1.06V6.45a.15.15 0 0 1 .15-.15ZM6.45 20.475h4.505a.933.933 0 0 0 .9-.675l2.47-9.525h-1.5l-1.538 4.874-3.736.002a.638.638 0 0 0 0 1.275l3.331-.001-.643 2.025H6.45a.451.451 0 0 0-.45.45v1.125c0 .248.203.45.45.45ZM6.3 18.9c0-.081.068-.15.15-.15h4.009l.833-2.625H7.55a.338.338 0 0 1 0-.674l3.956-.002 1.538-4.874h.892l-2.37 9.145a.645.645 0 0 1-.612.455H6.45a.152.152 0 0 1-.15-.15V18.9ZM12.833 9.825h1.492V6.45a.45.45 0 0 0-.45-.45H12.3a.45.45 0 0 0-.45.45V8.5c0 .162.011.273.18.45l.803.875ZM12.15 6.45a.15.15 0 0 1 .15-.15h1.575a.15.15 0 0 1 .15.15v3.075h-1.06l-.716-.78c-.1-.105-.1-.132-.1-.245l.001-2.05Z" fill="#fff"/></g><defs><clipPath id="a"><path fill="#fff" d="M0 0h30v30H0z"/></clipPath></defs></svg>
